Newaita/actions/32/view-categories-incomes.svg

<svg height="32" viewBox="0 0 32 32" width="32" xmlns="http://www.w3.org/2000/svg"><g fill="#424242"><path d="m5.292969 2.894531c-1.464844 0-2.648438 1.183594-2.648438 2.648438v1.320312h2.648438c0-.730469.589843-1.320312 1.320312-1.320312h18.523438c.734375 0 1.324219.589843 1.324219 1.320312v6.617188h2.644531v-7.9375c0-1.464844-1.179688-2.648438-2.644531-2.648438zm-2.648438 10.585938v13.230469c0 1.464843 1.183594 2.644531 2.648438 2.644531h2.644531v-2.644531h-1.324219c-.730469 0-1.320312-.589844-1.320312-1.324219v-11.90625zm0 0"/><path d="m3.96875 9.511719c-.734375 0-1.324219.589843-1.324219 1.324219v17.199218c0 .730469.589844 1.320313 1.324219 1.320313h14.554688v-2.644531h-12.570313c-.367187 0-.660156-.296876-.660156-.660157v-13.230469c0-.367187.292969-.664062.660156-.664062h11.90625c.367187 0 .664063.296875.664063.664062v8.597657h2.644531v-10.582031c0-.734376-.589844-1.324219-1.324219-1.324219zm0 0"/><path d="m8.601562 14.804688h6.613282c.367187 0 .660156.296874.660156.660156 0 .367187-.292969.660156-.660156.660156h-6.613282c-.367187 0-.664062-.292969-.664062-.660156 0-.363282.296875-.660156.664062-.660156zm0 0"/><path d="m8.601562 18.773438h6.613282c.367187 0 .660156.296874.660156.660156 0 .367187-.292969.660156-.660156.660156h-6.613282c-.367187 0-.664062-.292969-.664062-.660156 0-.363282.296875-.660156.664062-.660156zm0 0"/><path d="m8.601562 22.742188h6.613282c.367187 0 .660156.296874.660156.660156 0 .367187-.292969.664062-.660156.664062h-6.613282c-.367187 0-.664062-.296875-.664062-.664062 0-.363282.296875-.660156.664062-.660156zm0 0"/><path d="m29.105469 24.066406h-1.984375v-7.328125c0-.367187-.292969-.660156-.660156-.660156h-1.324219c-.367188 0-.660157.292969-.660157.660156v7.328125h-1.984374l3.308593 5.289063zm0 0"/></g></svg>

<svg xmlns="http://www.w3.org/2000/svg" xmlns:xlink="http://www.w3.org/1999/xlink" width="32px" height="32px" viewBox="0 0 32 32" version="1.1">
<g id="surface1">
     <defs>
  <style id="current-color-scheme" type="text/css">
   .ColorScheme-Text { color:#424242; } .ColorScheme-Highlight { color:#eeeeee; }
  </style>
 </defs>
<path style="fill:currentColor" class="ColorScheme-Text" d="M 5.292969 2.894531 C 3.828125 2.894531 2.644531 4.078125 2.644531 5.542969 L 2.644531 6.863281 L 5.292969 6.863281 C 5.292969 6.132812 5.882812 5.542969 6.613281 5.542969 L 25.136719 5.542969 C 25.871094 5.542969 26.460938 6.132812 26.460938 6.863281 L 26.460938 13.480469 L 29.105469 13.480469 L 29.105469 5.542969 C 29.105469 4.078125 27.925781 2.894531 26.460938 2.894531 Z M 2.644531 13.480469 L 2.644531 26.710938 C 2.644531 28.175781 3.828125 29.355469 5.292969 29.355469 L 7.9375 29.355469 L 7.9375 26.710938 L 6.613281 26.710938 C 5.882812 26.710938 5.292969 26.121094 5.292969 25.386719 L 5.292969 13.480469 Z M 2.644531 13.480469 "/>
     <defs>
  <style id="current-color-scheme" type="text/css">
   .ColorScheme-Text { color:#424242; } .ColorScheme-Highlight { color:#eeeeee; }
  </style>
 </defs>
<path style="fill:currentColor" class="ColorScheme-Text" d="M 3.96875 9.511719 C 3.234375 9.511719 2.644531 10.101562 2.644531 10.835938 L 2.644531 28.035156 C 2.644531 28.765625 3.234375 29.355469 3.96875 29.355469 L 18.523438 29.355469 L 18.523438 26.710938 L 5.953125 26.710938 C 5.585938 26.710938 5.292969 26.414062 5.292969 26.050781 L 5.292969 12.820312 C 5.292969 12.453125 5.585938 12.15625 5.953125 12.15625 L 17.859375 12.15625 C 18.226562 12.15625 18.523438 12.453125 18.523438 12.820312 L 18.523438 21.417969 L 21.167969 21.417969 L 21.167969 10.835938 C 21.167969 10.101562 20.578125 9.511719 19.84375 9.511719 Z M 3.96875 9.511719 "/>
     <defs>
  <style id="current-color-scheme" type="text/css">
   .ColorScheme-Text { color:#424242; } .ColorScheme-Highlight { color:#eeeeee; }
  </style>
 </defs>
<path style="fill:currentColor" class="ColorScheme-Text" d="M 8.601562 14.804688 L 15.214844 14.804688 C 15.582031 14.804688 15.875 15.101562 15.875 15.464844 C 15.875 15.832031 15.582031 16.125 15.214844 16.125 L 8.601562 16.125 C 8.234375 16.125 7.9375 15.832031 7.9375 15.464844 C 7.9375 15.101562 8.234375 14.804688 8.601562 14.804688 Z M 8.601562 14.804688 "/>
     <defs>
  <style id="current-color-scheme" type="text/css">
   .ColorScheme-Text { color:#424242; } .ColorScheme-Highlight { color:#eeeeee; }
  </style>
 </defs>
<path style="fill:currentColor" class="ColorScheme-Text" d="M 8.601562 18.773438 L 15.214844 18.773438 C 15.582031 18.773438 15.875 19.070312 15.875 19.433594 C 15.875 19.800781 15.582031 20.09375 15.214844 20.09375 L 8.601562 20.09375 C 8.234375 20.09375 7.9375 19.800781 7.9375 19.433594 C 7.9375 19.070312 8.234375 18.773438 8.601562 18.773438 Z M 8.601562 18.773438 "/>
     <defs>
  <style id="current-color-scheme" type="text/css">
   .ColorScheme-Text { color:#424242; } .ColorScheme-Highlight { color:#eeeeee; }
  </style>
 </defs>
<path style="fill:currentColor" class="ColorScheme-Text" d="M 8.601562 22.742188 L 15.214844 22.742188 C 15.582031 22.742188 15.875 23.039062 15.875 23.402344 C 15.875 23.769531 15.582031 24.066406 15.214844 24.066406 L 8.601562 24.066406 C 8.234375 24.066406 7.9375 23.769531 7.9375 23.402344 C 7.9375 23.039062 8.234375 22.742188 8.601562 22.742188 Z M 8.601562 22.742188 "/>
     <defs>
  <style id="current-color-scheme" type="text/css">
   .ColorScheme-Text { color:#424242; } .ColorScheme-Highlight { color:#eeeeee; }
  </style>
 </defs>
<path style="fill:currentColor" class="ColorScheme-Text" d="M 29.105469 24.066406 L 27.121094 24.066406 L 27.121094 16.738281 C 27.121094 16.371094 26.828125 16.078125 26.460938 16.078125 L 25.136719 16.078125 C 24.769531 16.078125 24.476562 16.371094 24.476562 16.738281 L 24.476562 24.066406 L 22.492188 24.066406 L 25.800781 29.355469 Z M 29.105469 24.066406 "/>
</g>
</svg>
